src/assets/outline/HeartEdit.svg

<svg width="24" height="24" viewBox="0 0 24 24"  xmlns="http://www.w3.org/2000/svg">
<path d="M12 21.6497C11.78 21.6497 11.45 21.6297 11.14 21.5197C7.32 20.2097 1.25 15.5696 1.25 8.68964C1.25 5.18964 4.08 2.34961 7.56 2.34961C9.25 2.34961 10.83 3.00964 12 4.18964C13.17 3.00964 14.75 2.34961 16.44 2.34961C19.92 2.34961 22.75 5.18964 22.75 8.68964C22.75 9.89964 22.57 11.0896 22.21 12.2296C22.09 12.6196 21.66 12.8496 21.27 12.7196C20.87 12.5996 20.66 12.1697 20.78 11.7797C21.09 10.7897 21.25 9.74965 21.25 8.69965C21.25 6.02965 19.09 3.85962 16.44 3.85962C14.92 3.85962 13.51 4.56961 12.6 5.78961C12.32 6.16961 11.68 6.16961 11.4 5.78961C10.48 4.55961 9.08 3.85962 7.56 3.85962C4.91 3.85962 2.75 6.02965 2.75 8.69965C2.75 15.5396 9.32 19.3296 11.63 20.1196C11.69 20.1396 11.83 20.1696 12 20.1696C12.41 20.1696 12.75 20.5096 12.75 20.9196C12.75 21.3296 12.41 21.6497 12 21.6497Z" />
<path d="M15.8201 22.7503C15.4401 22.7503 15.0801 22.6103 14.8201 22.3503C14.5101 22.0403 14.3701 21.5903 14.4401 21.1203L14.6301 19.7703C14.6801 19.4203 14.8901 19.0003 15.1401 18.7503L18.6801 15.2103C19.1601 14.7303 19.6301 14.4803 20.1401 14.4303C20.7701 14.3703 21.3801 14.6303 21.9601 15.2103C22.5401 15.7903 22.8001 16.4003 22.7401 17.0303C22.6901 17.5303 22.4301 18.0103 21.9601 18.4903L18.4201 22.0303C18.1701 22.2803 17.7601 22.4903 17.4101 22.5403L16.0601 22.7303C15.9701 22.7403 15.9001 22.7503 15.8201 22.7503ZM20.3101 15.9203C20.3001 15.9203 20.2901 15.9203 20.2801 15.9203C20.1401 15.9303 19.9501 16.0503 19.7401 16.2703L16.2001 19.8103C16.1701 19.8403 16.1201 19.9403 16.1201 19.9803L15.9401 21.2303L17.1901 21.0503C17.2301 21.0403 17.3301 20.9903 17.3601 20.9603L20.9001 17.4203C21.1101 17.2103 21.2401 17.0203 21.2501 16.8803C21.2701 16.6803 21.0701 16.4403 20.9001 16.2703C20.7401 16.1103 20.5101 15.9203 20.3101 15.9203Z" />
<path d="M20.9201 19.2203C20.8501 19.2203 20.7801 19.2104 20.7201 19.1904C19.4001 18.8204 18.3501 17.7704 17.9801 16.4504C17.8701 16.0504 18.1001 15.6404 18.5001 15.5304C18.9001 15.4204 19.3101 15.6503 19.4301 16.0503C19.6601 16.8703 20.3101 17.5204 21.1301 17.7504C21.5301 17.8604 21.7601 18.2803 21.6501 18.6703C21.5501 19.0003 21.2501 19.2203 20.9201 19.2203Z" />
</svg>

<?xml version="1.0" encoding="UTF-8"?>
<svg width="24" height="24" viewBox="0 0 24 24" xmlns="http://www.w3.org/2000/svg">
 <path d="m12 21.65c-0.22 0-0.55-0.02-0.86-0.13-3.82-1.31-9.89-5.9501-9.89-12.83 0-3.5 2.83-6.34 6.31-6.34 1.69 0 3.27 0.66003 4.44 1.84 1.17-1.18 2.75-1.84 4.44-1.84 3.48 0 6.31 2.84 6.31 6.34 0 1.21-0.18 2.4-0.54 3.54-0.12 0.39-0.55 0.62-0.94 0.49-0.4-0.12-0.61-0.5499-0.49-0.9399 0.31-0.99 0.47-2.03 0.47-3.08 0-2.67-2.16-4.84-4.81-4.84-1.52 0-2.93 0.70999-3.84 1.93-0.28 0.38-0.92 0.38-1.2 0-0.92-1.23-2.32-1.93-3.84-1.93-2.65 0-4.81 2.17-4.81 4.84 0 6.84 6.57 10.63 8.88 11.42 0.06 0.02 0.2 0.05 0.37 0.05 0.41 0 0.75 0.34 0.75 0.75s-0.34 0.7301-0.75 0.7301z"/>
 <path d="m15.82 22.75c-0.38 0-0.74-0.14-1-0.4-0.31-0.31-0.45-0.76-0.38-1.23l0.19-1.35c0.05-0.35 0.26-0.77 0.51-1.02l3.54-3.54c0.48-0.48 0.95-0.73 1.46-0.78 0.63-0.06 1.24 0.2 1.82 0.78s0.84 1.19 0.78 1.82c-0.05 0.5-0.31 0.98-0.78 1.46l-3.54 3.54c-0.25 0.25-0.66 0.46-1.01 0.51l-1.35 0.19c-0.09 0.01-0.16 0.02-0.24 0.02zm4.49-6.83h-0.03c-0.14 0.01-0.33 0.13-0.54 0.35l-3.54 3.54c-0.03 0.03-0.08 0.13-0.08 0.17l-0.18 1.25 1.25-0.18c0.04-0.01 0.14-0.06 0.17-0.09l3.54-3.54c0.21-0.21 0.34-0.4 0.35-0.54 0.02-0.2-0.18-0.44-0.35-0.61-0.16-0.16-0.39-0.35-0.59-0.35z"/>
 <path d="m20.92 19.22c-0.07 0-0.14-0.0099-0.2-0.0299-1.32-0.37-2.37-1.42-2.74-2.74-0.11-0.4 0.12-0.81 0.52-0.92s0.81 0.1199 0.93 0.5199c0.23 0.82 0.88 1.4701 1.7 1.7001 0.4 0.11 0.63 0.5299 0.52 0.9199-0.1 0.33-0.4 0.55-0.73 0.55z"/>
</svg>
